X:1
T: Bridge of Bucket
C:Alexander Walker
R:Reel
Q: 232
K:A
M:4/4
L:1/8
|:F|E2EF EC A,C|E2Ec BA FA|E2EF EC A,c|dB eB cA AF|
EA cB A2EC|A,A cA BB, B,C|EA cA de fg|ae fd cA Ag|
ae ce fB df|ae ce fB Bg|ae ce fd Bd|cB AG AA, A,g|
ae ce fB df|ae ce fB Bg|ae fe fd ec|dB ed cA A:|
